X:106
T:score192
L:1/8
Q:1/4=96
M:4/4
I:linebreak $
K:F
 ccd | d3 c cBBA | A2- A z z AcB |$ B3 A AGGF | F2- F z z FEF | D2 F2 B2 B2 |$ A2- A z z FEF | %7
 D2 F2 B2 B2 | A2- A z z4 |] %9
